X:1
T:Lubbock, 11.11.11.11
T:Lubbock, 11.11.11.11
T:Kenneth Carl Moser, 1918
T:Public Domain Courtesy of the Cyber Hymnal™
C:Kenneth Carl Moser, 1918
Z:Public Domain
Z:Courtesy of the Cyber Hymnal™
%%score ( 1 2 ) ( 3 4 )
L:1/8
M:4/4
K:G
V:1 treble 
V:2 treble 
V:3 bass 
V:4 bass 
V:1
 [DB]2 D2 [DG]2 [DA]2 | [DG]2 [DB]4 z2 | [Ec]2 [CE]2 [EG]2 [EA]2 | [DB]6 z2 | %4
 [DB]2 [DF]2 [DA]2 [DG]2 | [DG]2 [DF]4 z2 | [^CA]2 [CE]2 [CA]2 [CB]2 | [DA]6 z2 | %8
 [Gd]2 [DB]2 [Fc]2 [DF]2 | [Ge]2 [Gd]4 z2 | [_EB]2 [DF]2 [DA]2 [DG]2 | [EG]6 z2 | %12
 [EG]2 [DF]2 [CE]2 [Ec]2 | [Ec]2 [DB]4 z2 | [^CB]2 [CA]2 [=CE]2 [CF]2 | [B,G]6 |] %16
V:2
 x2 D2 x4 | x8 | x8 | x8 | x8 | x8 | x8 | x8 | x8 | x8 | x8 | x8 | x8 | x8 | x8 | x6 |] %16
V:3
 G,2 [G,B,]2 [G,B,]2 [G,C]2 | [G,B,]2 G,4 z2 | [C,G,]2 [C,G,]2 [C,G,]2 [C,G,]2 | [G,,G,]6 z2 | %4
 [D,F,]2 [D,A,]2 [D,C]2 [D,B,]2 | [D,B,]2 [D,A,]4 z2 | [A,,G,]2 [A,,G,]2 [A,,E,]2 [A,,G,]2 | %7
 [D,F,]6 z2 | [G,B,]2 G,2 [D,A,]2 [A,C]2 | [G,C]2 [G,B,]4 z2 | %10
 [B,,F,]2 [B,,B,]2 [B,,F,]2 [B,,B,]2 | [E,B,]6 z2 | [C,C]2 [C,G,]2 [C,G,]2 [C,G,]2 | %13
 [G,,G,]2 [G,,G,]4 z2 | [A,,G,]2 [A,,E,]2 [D,F,]2 [D,A,]2 | [G,,G,]6 |] %16
V:4
 G,2 x6 | x2 G,4 x2 | x8 | x8 | x8 | x8 | x8 | x8 | x2 G,2 x4 | x8 | x8 | x8 | x8 | x8 | x8 | x6 |] %16

